packages/ffe-icons/icons/open/400/sm/text_select_move_forward_character.svg

<svg xmlns="http://www.w3.org/2000/svg" height="20" viewBox="0 -960 960 960" width="20"><path d="M480.21-744q-15.21 0-25.71-10.29t-10.5-25.5q0-15.21 10.29-25.71t25.5-10.5q15.21 0 25.71 10.29t10.5 25.5q0 15.21-10.29 25.71t-25.5 10.5Zm150 0q-15.21 0-25.71-10.29t-10.5-25.5q0-15.21 10.29-25.71t25.5-10.5q15.21 0 25.71 10.29t10.5 25.5q0 15.21-10.29 25.71t-25.5 10.5Zm150 0q-15.21 0-25.71-10.29t-10.5-25.5q0-15.21 10.29-25.71t25.5-10.5q15.21 0 25.71 10.29t10.5 25.5q0 15.21-10.29 25.71t-25.5 10.5Zm-300 600q-15.21 0-25.71-10.29t-10.5-25.5q0-15.21 10.29-25.71t25.5-10.5q15.21 0 25.71 10.29t10.5 25.5q0 15.21-10.29 25.71t-25.5 10.5Zm150 0q-15.21 0-25.71-10.29t-10.5-25.5q0-15.21 10.29-25.71t25.5-10.5q15.21 0 25.71 10.29t10.5 25.5q0 15.21-10.29 25.71t-25.5 10.5Zm150 0q-15.21 0-25.71-10.29t-10.5-25.5q0-15.21 10.29-25.71t25.5-10.5q15.21 0 25.71 10.29t10.5 25.5q0 15.21-10.29 25.71t-25.5 10.5ZM180-144q-15.3 0-25.65-10.29Q144-164.58 144-179.79t10.35-25.71Q164.7-216 180-216h48v-528h-48q-15.3 0-25.65-10.29Q144-764.58 144-779.79t10.35-25.71Q164.7-816 180-816h168q15.3 0 25.65 10.29Q384-795.42 384-780.21t-10.35 25.71Q363.3-744 348-744h-48v528h48q15.3 0 25.65 10.29Q384-195.42 384-180.21t-10.35 25.71Q363.3-144 348-144H180Zm498-300H468q-15.3 0-25.65-10.29Q432-464.58 432-479.79t10.35-25.71Q452.7-516 468-516h210l-32-32q-11-11-10.5-25.5T647-599q11-11 25.5-11t25.5 11l93.24 94.14Q802-494 802-479.82T791-455l-94 94q-11 11-25 10.5T647-362q-11-11-11-25.5t11-25.5l31-31Z"/></svg>

<svg xmlns="http://www.w3.org/2000/svg" height="20" viewBox="0 -960 960 960" width="20"><path d="M480.211-744Q465-744 454.5-754.289q-10.5-10.29-10.5-25.5Q444-795 454.289-805.5q10.29-10.5 25.5-10.5Q495-816 505.5-805.711q10.5 10.29 10.5 25.5Q516-765 505.711-754.5q-10.29 10.5-25.5 10.5Zm150 0Q615-744 604.5-754.289q-10.5-10.29-10.5-25.5Q594-795 604.289-805.5q10.29-10.5 25.5-10.5Q645-816 655.5-805.711q10.5 10.29 10.5 25.5Q666-765 655.711-754.5q-10.29 10.5-25.5 10.5Zm150 0Q765-744 754.5-754.289q-10.5-10.29-10.5-25.5Q744-795 754.289-805.5q10.29-10.5 25.5-10.5Q795-816 805.5-805.711q10.5 10.29 10.5 25.5Q816-765 805.711-754.5q-10.29 10.5-25.5 10.5Zm-300 600Q465-144 454.5-154.289q-10.5-10.29-10.5-25.5Q444-195 454.289-205.5q10.29-10.5 25.5-10.5Q495-216 505.5-205.711q10.5 10.29 10.5 25.5Q516-165 505.711-154.5q-10.29 10.5-25.5 10.5Zm150 0Q615-144 604.5-154.289q-10.5-10.29-10.5-25.5Q594-195 604.289-205.5q10.29-10.5 25.5-10.5Q645-216 655.5-205.711q10.5 10.29 10.5 25.5Q666-165 655.711-154.5q-10.29 10.5-25.5 10.5Zm150 0Q765-144 754.5-154.289q-10.5-10.29-10.5-25.5Q744-195 754.289-205.5q10.29-10.5 25.5-10.5Q795-216 805.5-205.711q10.5 10.29 10.5 25.5Q816-165 805.711-154.5q-10.29 10.5-25.5 10.5ZM180-144q-15.3 0-25.65-10.289-10.35-10.29-10.35-25.5Q144-195 154.35-205.5 164.7-216 180-216h48v-528h-48q-15.3 0-25.65-10.289-10.35-10.29-10.35-25.5Q144-795 154.35-805.5 164.7-816 180-816h168q15.3 0 25.65 10.289 10.35 10.29 10.35 25.5Q384-765 373.65-754.5 363.3-744 348-744h-48v528h48q15.3 0 25.65 10.289 10.35 10.29 10.35 25.5Q384-165 373.65-154.5 363.3-144 348-144H180Zm498-300H468q-15.3 0-25.65-10.289-10.35-10.29-10.35-25.5Q432-495 442.35-505.5 452.7-516 468-516h210l-32-32q-11-11-10.5-25.5T647-599q11-11 25.5-11t25.5 11l93.241 94.138Q802-494 802-479.818T791-455l-94 94q-11 11-25 10.5T647-362q-11-11-11-25.5t11-25.5l31-31Z"/></svg>
